DVA
CUT[Gemalte Rosen
    Es ging ein Maedchen Wasser hol'n]
CNR[an einem tiefen Brunnen]
REG[Europa, Mitteleuropa, Lothringen, Gebenhausen]
KEY[D0027  08  D 2/2]
MEL[5_  +1_5_5_5_  6_5_5_
    5_  6_.44_3_  3__2__
    1__3__  5__.0_
    5__7__  +2__.
    +1_  7_6_5_4_  4__3_ //] >>
FCT[Ballade, Liebe]
CMT[Inzipit = Variante zum Lied]
